svg/device/game_2_line.svg

<?xml version="1.0" encoding="UTF-8"?>
<svg width="24px" height="24px" viewBox="0 0 24 24" version="1.1" xmlns="http://www.w3.org/2000/svg" xmlns:xlink="http://www.w3.org/1999/xlink">
    <title>game_2_line</title>
    <g id="页面-1" stroke="none" stroke-width="1" fill="none" fill-rule="evenodd">
        <g id="Device" transform="translate(-480.000000, 0.000000)">
            <g id="game_2_line" transform="translate(480.000000, 0.000000)">
                 <path d="M24,0 L24,24 L0,24 L0,0 L24,0 Z M12.5934901,23.257841 L12.5819402,23.2595131 L12.5108777,23.2950439 L12.4918791,23.2987469 L12.4918791,23.2987469 L12.4767152,23.2950439 L12.4056548,23.2595131 C12.3958229,23.2563662 12.3870493,23.2590235 12.3821421,23.2649074 L12.3780323,23.275831 L12.360941,23.7031097 L12.3658947,23.7234994 L12.3769048,23.7357139 L12.4804777,23.8096931 L12.4953491,23.8136134 L12.4953491,23.8136134 L12.5071152,23.8096931 L12.6106902,23.7357139 L12.6232938,23.7196733 L12.6232938,23.7196733 L12.6266527,23.7031097 L12.609561,23.275831 C12.6075724,23.2657013 12.6010112,23.2592993 12.5934901,23.257841 L12.5934901,23.257841 Z M12.8583906,23.1452862 L12.8445485,23.1473072 L12.6598443,23.2396597 L12.6498822,23.2499052 L12.6498822,23.2499052 L12.6471943,23.2611114 L12.6650943,23.6906389 L12.6699349,23.7034178 L12.6699349,23.7034178 L12.678386,23.7104931 L12.8793402,23.8032389 C12.8914285,23.8068999 12.9022333,23.8029875 12.9078286,23.7952264 L12.9118235,23.7811639 L12.8776777,23.1665331 C12.8752882,23.1545897 12.8674102,23.1470016 12.8583906,23.1452862 L12.8583906,23.1452862 Z M12.1430473,23.1473072 C12.1332178,23.1423925 12.1221763,23.1452606 12.1156365,23.1525954 L12.1099173,23.1665331 L12.0757714,23.7811639 C12.0751323,23.7926639 12.0828099,23.8018602 12.0926481,23.8045676 L12.108256,23.8032389 L12.3092106,23.7104931 L12.3186497,23.7024347 L12.3186497,23.7024347 L12.3225043,23.6906389 L12.340401,23.2611114 L12.337245,23.2485176 L12.337245,23.2485176 L12.3277531,23.2396597 L12.1430473,23.1473072 Z" id="MingCute" fill-rule="nonzero"></path>
                <path d="M17,4 C17.763,4 18.3943,4.43433 18.856,4.88911 C19.3373,5.36318 19.7777,5.99879 20.1696,6.69921 C20.9568,8.10625 21.6416,9.94322 22.0951,11.7575 C22.5456,13.5593 22.7935,15.4395 22.6349,16.919 C22.4759,18.4035 21.7111,20 20,20 C18.5236571,20 17.3480707,19.2399528 16.3857126,18.4685583 L16.0346525,18.1802157 L16.0346525,18.1802157 L15.5433,17.7649 L15.5433,17.7649 L15.0989068,17.396701 C14.0806187,16.5716156 13.1746,16 12,16 C10.8254,16 9.91935828,16.5716156 8.90105775,17.396701 L8.45666,17.7649 L8.45666,17.7649 L7.96532082,18.1802157 L7.96532082,18.1802157 L7.61426605,18.4685583 C6.6519195,19.2399528 5.47632476,20 4.00002,20 C2.28897,20 1.52419,18.4035 1.36515,16.919 C1.20663,15.4395 1.45448,13.5593 1.90493,11.7575 C2.35847,9.94323 3.04321,8.10626 3.83047,6.69922 C4.22237,5.99879 4.66268,5.36318 5.144,4.88911 C5.60574,4.43432 6.23699,4 7.00002,4 C7.515445,4 8.01775281,4.12284766 8.51339607,4.26966602 L9.10538197,4.45102586 C9.20365078,4.48106078 9.30175625,4.5104725 9.39975,4.53847 C10.2653,4.78576 11.15,5 12,5 C12.85,5 13.7347,4.78576 14.6003,4.53848 L15.4847803,4.27088135 C15.9827734,4.12392578 16.4903125,4 17,4 Z M17.0004,6.00029 C16.6169625,6.00029 16.2168062,6.11562984 15.8287887,6.2426523 L15.370841,6.39405285 C15.2961031,6.41800953 15.2223125,6.440775 15.1497,6.46152 C14.2652,6.71424 13.1499,7 12,7 C10.8501,7 9.73483,6.71424 8.85032,6.46153 L8.62928887,6.3940758 L8.62928887,6.3940758 L8.17143348,6.24260693 C7.78344734,6.11549219 7.38325125,6 7.00002,6 C6.58186667,6.07771333 6.20678444,6.58480444 5.92418963,7.05542741 L5.76612656,7.32969824 L5.76612656,7.32969824 L5.57584,7.67578 L5.57584,7.67578 C4.89437,8.89374 4.26664,10.5568 3.84521,12.2425 C3.45100357,13.8194 3.25933847,15.3287 3.3322255,16.4534203 L3.358,16.7459 L3.358,16.7459 L3.37769802,16.9217299 L3.37769802,16.9217299 L3.40810417,17.1303954 C3.47685462,17.5312191 3.62591,18 4.00002,18 C4.81235176,18 5.48909758,17.5960958 6.3330526,16.9256615 L6.73554573,16.5978053 L6.73554573,16.5978053 L7.49505162,15.9617731 L7.49505162,15.9617731 L7.84007491,15.6818485 C8.90408405,14.8390529 10.2347645,14 12,14 C13.7653091,14 15.0959628,14.8390529 16.1599434,15.6818485 L16.5049572,15.9617731 L16.5049572,15.9617731 L17.2644323,16.5978053 L17.2644323,16.5978053 L17.6669146,16.9256615 C18.5108567,17.5960958 19.1876529,18 20,18 C20.3401333,18 20.4942667,17.6125778 20.5711407,17.2409926 L20.608864,17.023168 L20.608864,17.023168 L20.6463,16.706 L20.6463,16.706 C20.7691,15.5605 20.5794,13.9407 20.1549,12.2425 C19.768525,10.697275 19.2088847,9.17108229 18.593366,7.98930824 L18.233952,7.32978248 L18.233952,7.32978248 L18.0759333,7.05556556 C17.7934222,6.58503222 17.4184667,6.07802333 17.0004,6.00029 Z M8.5,8 C9.88071,8 11,9.11929 11,10.5 C11,11.8807 9.88071,13 8.5,13 C7.11929,13 6,11.8807 6,10.5 C6,9.11929 7.11929,8 8.5,8 Z M15.5,8 C16.01285,8 16.4355092,8.38604429 16.4932725,8.88337975 L16.5,9 L16.5,9.5 L17,9.5 C17.5523,9.5 18,9.94772 18,10.5 C18,11.01285 17.613973,11.4355092 17.1166239,11.4932725 L17,11.5 L16.5,11.5 L16.5,12 C16.5,12.5523 16.0523,13 15.5,13 C14.98715,13 14.5644908,12.613973 14.5067275,12.1166239 L14.5,12 L14.5,11.5 L14,11.5 C13.4477,11.5 13,11.0523 13,10.5 C13,9.98716857 13.386027,9.56449347 13.8833761,9.5067278 L14,9.5 L14.5,9.5 L14.5,9 C14.5,8.44772 14.9477,8 15.5,8 Z M8.5,10 C8.22386,10 8,10.2239 8,10.5 C8,10.7761 8.22386,11 8.5,11 C8.77614,11 9,10.7761 9,10.5 C9,10.2239 8.77614,10 8.5,10 Z" id="形状" fill="#09244B"></path>
            </g>
        </g>
    </g>
</svg>

<svg xmlns="http://www.w3.org/2000/svg" width="24" height="24"><g fill="none" fill-rule="evenodd"><path d="M24 0v24H0V0h24ZM12.593 23.258l-.011.002-.071.035-.02.004-.014-.004-.071-.035c-.01-.004-.019-.001-.024.005l-.004.01-.017.428.005.02.01.013.104.074.015.004.012-.004.104-.074.012-.016.004-.017-.017-.427c-.002-.01-.009-.017-.017-.018Zm.265-.113-.013.002-.185.093-.01.01-.003.011.018.43.005.012.008.007.201.093c.012.004.023 0 .029-.008l.004-.014-.034-.614c-.003-.012-.01-.02-.02-.022Zm-.715.002a.023.023 0 0 0-.027.006l-.006.014-.034.614c0 .012.007.02.017.024l.015-.002.201-.093.01-.008.004-.011.017-.43-.003-.012-.01-.01-.184-.092Z"/><path fill="#09244B" d="M17 4c.763 0 1.394.434 1.856.89.481.473.922 1.109 1.314 1.81.787 1.406 1.472 3.243 1.925 5.058.45 1.801.699 3.682.54 5.161C22.475 18.404 21.71 20 20 20c-1.476 0-2.652-.76-3.614-1.531l-.351-.289-.492-.415-.444-.368C14.08 16.572 13.175 16 12 16c-1.175 0-2.08.572-3.099 1.397l-.444.368-.492.415-.35.289C6.651 19.24 5.475 20 4 20c-1.711 0-2.476-1.596-2.635-3.081-.158-1.48.09-3.36.54-5.161.453-1.815 1.138-3.652 1.925-5.059.392-.7.833-1.336 1.314-1.81C5.606 4.434 6.237 4 7 4c.515 0 1.018.123 1.513.27l.592.181c.099.03.197.06.295.087.865.248 1.75.462 2.6.462.85 0 1.735-.214 2.6-.462l.885-.267C15.983 4.124 16.49 4 17 4Zm0 2c-.383 0-.783.116-1.171.243l-.458.151a7.268 7.268 0 0 1-.221.068c-.885.252-2 .538-3.15.538s-2.265-.286-3.15-.538l-.22-.068-.459-.151C7.783 6.115 7.383 6 7 6c-.418.078-.793.585-1.076 1.055l-.158.275-.19.346c-.682 1.218-1.31 2.88-1.73 4.567-.395 1.576-.587 3.086-.514 4.21l.026.293.02.176.03.208c.069.401.218.87.592.87.812 0 1.49-.404 2.333-1.074l.403-.328.76-.636.344-.28C8.904 14.839 10.235 14 12 14c1.765 0 3.096.84 4.16 1.682l.345.28.76.636.402.328C18.51 17.596 19.187 18 20 18c.34 0 .494-.387.571-.759l.038-.218.037-.317c.123-1.146-.067-2.765-.491-4.463-.386-1.546-.946-3.072-1.562-4.254l-.359-.66-.158-.273C17.793 6.585 17.418 6.078 17 6ZM8.5 8a2.5 2.5 0 1 1 0 5 2.5 2.5 0 0 1 0-5Zm7 0a1 1 0 0 1 .993.883L16.5 9v.5h.5a1 1 0 0 1 .117 1.993L17 11.5h-.5v.5a1 1 0 0 1-1.993.117L14.5 12v-.5H14a1 1 0 0 1-.117-1.993L14 9.5h.5V9a1 1 0 0 1 1-1Zm-7 2a.5.5 0 1 0 0 1 .5.5 0 0 0 0-1Z"/></g></svg>
